X: 20
T: Lunar Eclipse
C: Elizabeth A. Snowdon
O: Philadelphia, Pennsylvania
%R: jig
Z: Collected and edited 2014 by John Chambers <jc:trillian.mit.edu>
B: GEMS The Best of the Country Dance and Song Society Diamond Jubilee Music, Dance and Song Contest 1993 p.49
M: 6/8
L: 1/8
K: Ador
% - - - - - - - - - - - - - - - - - - - - - - - - -
E "A"|\
"Am"ABc B2A | "Dm"=f3 e2d | "Am"cdB "E"c2B | "Am"c2B A2E | "Am"ABc B2A |
"Dm"=f3 e2d | "Am"c2B "E"cdB | "Am"A3- A2 :: B/c/ "B"| "G"ded BAG | "C"c3 B2c |
"E"e2B c2B | "Am"A3- A2d | "E"e2B "Am"c2A | "B"B2F "Em"G2B | "Am"ABA "B"G2F | "Am"E3- E2 :|
% - - - - - - - - - - - - - - - - - - - - - - - - -

%%sep 3 1 530
%%sep 1 1 530
